www/assets/icons/hdr_off.svg

<svg width="24" height="24" viewBox="0 0 24 24" xmlns="http://www.w3.org/2000/svg" fill='currentColor'><path d="M18 14.45V12.45H19.1L20 14.45H21.5L20.6 12.35C21.1 12.15 21.5 11.55 21.5 10.95V9.94995C21.5 9.14995 20.8 8.44995 20 8.44995H16.5V13.35L17.6 14.45H18ZM18 9.94995H20V10.95H18V9.94995ZM13.5 9.94995V10.35L15 11.85V9.94995C15 9.14995 14.3 8.44995 13.5 8.44995H11.6L13.1 9.94995H13.5ZM10 8.94995L3.00002 1.94995L1.90002 2.94995L7.40002 8.44995H7.00002V10.45H5.00002V8.44995H3.50002V14.45H5.00002V11.95H7.00002V14.45H8.50002V9.54995L10 11.05V14.45H13.4L21 22.05L22.1 20.95L10 8.94995Z"/></svg>

<svg xmlns="http://www.w3.org/2000/svg" width="24" height="24" viewBox="0 0 24 24" fill='currentColor'><path d="M18 14.45v-2h1.1l.9 2h1.5l-.9-2.1c.5-.2.9-.8.9-1.4v-1c0-.8-.7-1.5-1.5-1.5h-3.5v4.9l1.1 1.1zm0-4.5h2v1h-2zm-4.5 0v.4l1.5 1.5v-1.9c0-.8-.7-1.5-1.5-1.5h-1.9l1.5 1.5zm-3.5-1-7-7-1.1 1 5.5 5.5H7v2H5v-2H3.5v6H5v-2.5h2v2.5h1.5v-4.9l1.5 1.5v3.4h3.4l7.6 7.6 1.1-1.1z"/></svg>
